logos/entryrise.svg

<svg xmlns="http://www.w3.org/2000/svg" viewBox="303.745 244.132 35.629 21.343" width="72" height="72"><path d="M0 0h10.639l2.339-4.055.862-1.492 2.116-3.665-1.536-2.66.876-1.402 2.346 4.062-2.992 5.186-.862 1.493-2.306 3.993H-.843l-5.172-8.956h1.686Z" style="fill:#fff;fill-opacity:1" transform="matrix(1 0 0 -1 311.115 245.592)"/><path d="M0 0h-10.639l-4.898 8.482h11.802L-6.47 5.747l1.033-1.032L-.94 9.212l-4.497 4.497-1.033-1.032 2.736-2.735h-14.274l6.526-11.402H.843l1.872 3.241-.879 1.401Z" style="fill:#fff;fill-opacity:1" transform="matrix(1 0 0 -1 321.753 264.016)"/><path d="m0 0 3.931-6.285-3.478-6.547-7.409-.263-.358.569-.591.949-.876 1.402-.591.945-1.515 2.423 1.537 2.895-.862 1.492-2.361-4.449 2.372-3.795.591-.946.88-1.401.591-.949.391-.624 9.095.321 4.27 8.037L.792 1.489l-.423-.015-8.672-.306-.004-.007.814-1.416Z" style="fill:#fff;fill-opacity:1" transform="matrix(1 0 0 -1 333.757 248.256)"/></svg>

<?xml version="1.0" encoding="utf-8"?>
<svg viewBox="303.745 244.132 35.629 21.343" xmlns="http://www.w3.org/2000/svg" width="72px" height="72px">
  <g transform="matrix(1, 0, 0, -1, 311.114624, 245.592285)">
    <path d="M 0 0 L 10.639 0 L 12.978 -4.055 L 13.84 -5.547 L 15.956 -9.212 L 14.42 -11.872 L 15.296 -13.274 L 17.642 -9.212 L 14.65 -4.026 L 13.788 -2.533 L 11.482 1.46 L -0.843 1.46 L -6.015 -7.496 L -4.329 -7.496 Z" style="fill: white; fill-opacity: 1;"/>
  </g>
  <g transform="matrix(1, 0, 0, -1, 321.753296, 264.015778)">
    <path d="M 0 0 L -10.639 0 L -15.537 8.482 L -3.735 8.482 L -6.47 5.747 L -5.437 4.715 L -0.94 9.212 L -5.437 13.709 L -6.47 12.677 L -3.734 9.942 L -18.008 9.942 L -11.482 -1.46 L 0.843 -1.46 L 2.715 1.781 L 1.836 3.182 Z" style="fill: white; fill-opacity: 1;"/>
  </g>
  <g transform="matrix(1, 0, 0, -1, 333.757111, 248.25647)">
    <path d="M 0 0 L 3.931 -6.285 L 0.453 -12.832 L -6.956 -13.095 L -7.314 -12.526 L -7.905 -11.577 L -8.781 -10.175 L -9.372 -9.23 L -10.887 -6.807 L -9.35 -3.912 L -10.212 -2.42 L -12.573 -6.869 L -10.201 -10.664 L -9.61 -11.61 L -8.73 -13.011 L -8.139 -13.96 L -7.748 -14.584 L 1.347 -14.263 L 5.617 -6.226 L 0.792 1.489 L 0.369 1.474 L -8.303 1.168 L -8.307 1.161 L -7.493 -0.255 Z" style="fill: white; fill-opacity: 1;"/>
  </g>
</svg>
